icon-themes/breeze_svg/cmd/lc_ellipsecut_unfilled.svg

<svg viewBox="0 0 24 24" xmlns="http://www.w3.org/2000/svg"><path d="m12 6c-4.418278 0-8 2.6862915-8 6 0 3.313708 3.581722 6 8 6s8-2.686292 8-6zm-.3125 1 7.28125 5.5c-.35847 2.521281-3.344382 4.5-6.96875 4.5-3.8659932 0-7-2.238576-7-5 0-2.6865266 2.9667117-4.8830893 6.6875-5z" fill="#4d4d4d"/></svg>

<svg xmlns="http://www.w3.org/2000/svg" viewBox="0 0 24 24">
 <path 
     style="fill:#4d4d4d" 
     d="M 12 6 C 7.581722 6 4 8.6862915 4 12 C 4 15.313708 7.581722 18 12 18 C 16.418278 18 20 15.313708 20 12 L 12 6 z M 11.6875 7 L 18.96875 12.5 C 18.61028 15.021281 15.624368 17 12 17 C 8.1340068 17 5 14.761424 5 12 C 5 9.3134734 7.9667117 7.1169107 11.6875 7 z "
     />
 </svg>
